svgs/light/hand-love.svg

<svg xmlns="http://www.w3.org/2000/svg" viewBox="0 0 512 512"><!-- Font Awesome Pro 6.0.0-alpha2 by @fontawesome - https://fontawesome.com License - https://fontawesome.com/license (Commercial License) --><path d="M424.001 64C393.126 64 368.001 89.125 368.001 120V181.617C360.698 178.121 352.622 176 344.001 176C331.836 176 320.649 180.002 311.456 186.615C301.567 170.705 284.069 160 264.001 160C255.379 160 247.303 162.121 240.001 165.617V56C240.001 25.125 214.876 0 184.001 0S128.001 25.125 128.001 56V307.875L97.764 268.875C87.495 255.444 71.382 247.358 54.454 247.358C24.89 247.358 0 270.421 0 301.815C0 313.957 3.856 326.271 11.721 336.609L98.077 450.078C125.706 488.859 170.618 512 218.202 512H319.997C408.225 512 480.001 440.109 480.001 351.75V120C480.001 89.125 454.876 64 424.001 64ZM344.001 208C357.219 208 368.001 218.766 368.001 232V328C368.001 341.234 357.219 352 344.001 352S320.001 341.234 320.001 328V232C320.001 218.766 330.782 208 344.001 208ZM264.001 192C277.219 192 288.001 202.766 288.001 216V312C288.001 325.234 277.219 336 264.001 336S240.001 325.234 240.001 312V216C240.001 202.766 250.782 192 264.001 192ZM447.997 351.75C447.997 422.469 390.583 480 319.997 480H218.202C180.946 480 145.786 461.875 123.846 431.109L37.194 317.234C33.658 312.582 31.916 307.08 31.916 301.735C31.916 284.947 46.825 279.248 53.507 279.248C62.285 279.248 69.757 284.937 72.307 288.281L107.251 334.25C113.499 342.472 123.144 347.115 132.812 347.115C136.844 347.115 160.017 344.511 160.017 320.986C160.017 320.659 160.012 320.33 160.001 320V56C160.001 42.766 170.782 32 184.001 32S208.001 42.766 208.001 56V312C208.001 342.875 233.126 368 264.001 368C276.165 368 287.352 363.998 296.545 357.385C306.434 373.295 323.932 384 344.001 384C374.876 384 400.001 358.875 400.001 328V120C400.001 106.766 410.782 96 424.001 96S448.001 106.766 448.001 120L447.997 351.75Z"/></svg>

<svg xmlns="http://www.w3.org/2000/svg" viewBox="0 0 512 512"><!--! Font Awesome Pro 6.0.0-alpha3 by @fontawesome - https://fontawesome.com License - https://fontawesome.com/license (Commercial License) --><path d="M424 64c-30.88 0-56 25.12-56 56v61.62C360.7 178.1 352.6 176 344 176c-12.16 0-23.35 4.002-32.54 10.62C301.6 170.7 284.1 160 264 160C255.4 160 247.3 162.1 240 165.6V56C240 25.12 214.9 0 184 0S128 25.12 128 56v251.9l-30.24-39c-10.27-13.43-26.38-21.52-43.31-21.52c-29.56 0-54.45 23.06-54.45 54.46c0 12.14 3.856 24.46 11.72 34.79l86.36 113.5C125.7 488.9 170.6 512 218.2 512h101.8C408.2 512 480 440.1 480 351.8V120C480 89.13 454.9 64 424 64zM344 208c13.22 0 24 10.77 24 24v96c0 13.23-10.78 24-24 24S320 341.2 320 328v-96C320 218.8 330.8 208 344 208zM264 192C277.2 192 288 202.8 288 216v96c0 13.23-10.78 24-24 24S240 325.2 240 312v-96C240 202.8 250.8 192 264 192zM447.1 351.8c0 70.72-57.41 128.3-128 128.3H218.2c-37.26 0-72.42-18.12-94.36-48.89L37.19 317.2c-3.536-4.652-5.278-10.15-5.278-15.5c0-16.79 14.91-22.49 21.59-22.49c8.778 0 16.25 5.689 18.8 9.034l34.94 45.97c6.248 8.222 15.89 12.87 25.56 12.87c4.032 0 27.2-2.604 27.2-26.13C160 320.7 160 320.3 160 320V56C160 42.77 170.8 32 184 32S208 42.77 208 56v256c0 30.88 25.12 56 56 56c12.16 0 23.35-4.002 32.54-10.62C306.4 373.3 323.9 384 344 384c30.88 0 56-25.12 56-56v-208C400 106.8 410.8 96 424 96S448 106.8 448 120L447.1 351.8z"/></svg>
